X: 36618
T: Shanagolden
R: waltz
M: 3/4
K: Dmajor
A|:A4 A2|A4 A2|B2 d4-|d4 e2|d4 B2|B2 G4|A6-|A4 d2|
e4 e2|e4 d2|f2 a4-|a4 b2|a4 a2|f2 d4|e6-|e4 d2|
e4 e2|e4 d2|f2 a4-|a4 b2|a4 a2|f4 d2|e6|f4 e2|
e4 d2|B4 A2|B2 d4-|d4 e2|d4 B2|
[1 B4 G2|A6|A4 A2:|2 B4 c2|d6|d6||

